svg/registrations/undo.svg

<svg width="16" height="16" viewBox="0 0 16 16" fill="none" xmlns="http://www.w3.org/2000/svg">
<path d="M15.503 12.8579C15.5031 12.5465 15.479 12.2355 15.431 11.9278L15.35 11.3947C15.3053 11.2127 15.259 11.0254 15.211 10.8327C15.1022 10.4259 14.9658 10.0269 14.8029 9.63856C14.6185 9.22197 14.405 8.81893 14.1638 8.43243C13.9105 8.02866 13.6298 7.64272 13.3237 7.27731C13.0073 6.91358 12.6636 6.57456 12.2956 6.2632C11.9352 5.95729 11.5557 5.67469 11.1594 5.41712C10.7791 5.1829 10.3838 4.97377 9.97625 4.79105L9.40218 4.54702L8.8451 4.36801C8.66008 4.315 8.50406 4.25299 8.31503 4.21499L7.78696 4.10798L7.3189 4.02197L7.21289 4.00897V1.71573C7.21187 1.57919 7.17212 1.44576 7.09824 1.33093C7.02436 1.21611 6.9194 1.12461 6.79557 1.0671C6.67174 1.00958 6.53411 0.988408 6.39872 1.00603C6.26332 1.02366 6.13571 1.07937 6.03073 1.16667L0.751026 5.53513C0.66945 5.60172 0.603707 5.68562 0.55856 5.78076C0.513412 5.8759 0.48999 5.97988 0.48999 6.08519C0.48999 6.19049 0.513412 6.29447 0.55856 6.38961C0.603707 6.48475 0.66945 6.56865 0.751026 6.63524L6.02673 11.0007C6.13171 11.088 6.25932 11.1437 6.39472 11.1613C6.53011 11.179 6.66773 11.1578 6.79157 11.1003C6.9154 11.0428 7.02036 10.9513 7.09424 10.8364C7.16812 10.7216 7.20787 10.5882 7.20889 10.4516V8.24041L7.3029 8.24841L7.54293 8.25741C7.64633 8.266 7.74917 8.28036 7.85097 8.30042L8.20102 8.35442L8.56607 8.45443C8.8251 8.50544 9.07613 8.62345 9.35517 8.70946C9.62983 8.82626 9.89704 8.95986 10.1553 9.1095C10.4303 9.25552 10.6763 9.45154 10.9454 9.63056C11.1943 9.83243 11.4304 10.0495 11.6525 10.2806C11.8727 10.5079 12.08 10.7473 12.2736 10.9977C12.4464 11.2432 12.6063 11.4976 12.7526 11.7598L12.9577 12.1318C13.0107 12.2588 13.0577 12.3808 13.1117 12.4989C13.2092 12.7139 13.2908 12.9359 13.3557 13.1629L13.4477 13.448C13.4687 13.539 13.4867 13.622 13.5037 13.697L13.6137 14.177L13.6407 14.298C13.6899 14.508 13.812 14.6937 13.9854 14.8219C14.1588 14.9501 14.3721 15.0125 14.5873 14.9979C14.8024 14.9834 15.0054 14.8928 15.1599 14.7425C15.3145 14.5921 15.4106 14.3917 15.431 14.177L15.485 13.566L15.51 13.2389C15.509 13.1229 15.503 12.9949 15.503 12.8579Z" fill="black"/>
</svg>

<svg xmlns="http://www.w3.org/2000/svg" viewBox="0 0 16 16"><title>undo</title><g id="Layer_1" data-name="Layer 1"><path d="M15.5,12.857a6.027,6.027,0,0,0-.072-.93l-.081-.533q-.067-.273-.139-.562A9.287,9.287,0,0,0,14.8,9.638a9.675,9.675,0,0,0-.639-1.206,10.437,10.437,0,0,0-.84-1.155,9.462,9.462,0,0,0-1.028-1.014,11.109,11.109,0,0,0-1.136-.846,10.261,10.261,0,0,0-1.183-.626L9.4,4.547l-.557-.179c-.185-.053-.341-.115-.53-.153l-.528-.107-.468-.086-.106-.013V1.716a.721.721,0,0,0-1.182-.549L.75,5.535a.71.71,0,0,0,0,1.1L6.025,11a.721.721,0,0,0,1.182-.549V8.24l.094.008.24.009a2.786,2.786,0,0,1,.308.043l.35.054.365.1c.259.051.51.169.789.255a7.269,7.269,0,0,1,.8.4c.275.146.521.342.79.521a7.755,7.755,0,0,1,.707.65,8.522,8.522,0,0,1,.621.717,8.624,8.624,0,0,1,.479.762l.205.372c.053.127.1.249.154.367a4.8,4.8,0,0,1,.244.664l.092.285c.021.091.039.174.056.249l.11.48.027.121a.909.909,0,0,0,1.79-.121l.054-.611.025-.327C15.506,13.122,15.5,12.994,15.5,12.857Z"/></g></svg>
